src/pos-icons/emoticon-cool-outline.svg

<svg height="24" viewBox="0 0 24 24" width="24" xmlns="http://www.w3.org/2000/svg"><path d="m19 10c0 1.38-2.12 2.5-3.5 2.5s-2.75-1.12-2.75-2.5h-1.5c0 1.38-1.37 2.5-2.75 2.5s-3.5-1.12-3.5-2.5h-.75c-.16.64-.25 1.31-.25 2a8 8 0 0 0 8 8 8 8 0 0 0 8-8c0-.69-.09-1.36-.25-2zm-7-6c-2.96 0-5.55 1.61-6.93 4h13.86c-1.38-2.39-3.97-4-6.93-4m10 8a10 10 0 0 1 -10 10 10 10 0 0 1 -10-10 10 10 0 0 1 10-10 10 10 0 0 1 10 10m-10 5.23c-1.75 0-3.29-.73-4.19-1.81l1.42-1.42c.45.72 1.52 1.23 2.77 1.23s2.32-.51 2.77-1.23l1.42 1.42c-.9 1.08-2.44 1.81-4.19 1.81z"/></svg>

<?xml version="1.0" encoding="UTF-8"?><!DOCTYPE svg PUBLIC "-//W3C//DTD SVG 1.1//EN" "http://www.w3.org/Graphics/SVG/1.1/DTD/svg11.dtd"><svg xmlns="http://www.w3.org/2000/svg" xmlns:xlink="http://www.w3.org/1999/xlink" version="1.1" id="mdi-emoticon-cool-outline" width="24" height="24" viewBox="0 0 24 24"><path d="M19,10C19,11.38 16.88,12.5 15.5,12.5C14.12,12.5 12.75,11.38 12.75,10H11.25C11.25,11.38 9.88,12.5 8.5,12.5C7.12,12.5 5,11.38 5,10H4.25C4.09,10.64 4,11.31 4,12A8,8 0 0,0 12,20A8,8 0 0,0 20,12C20,11.31 19.91,10.64 19.75,10H19M12,4C9.04,4 6.45,5.61 5.07,8H18.93C17.55,5.61 14.96,4 12,4M22,12A10,10 0 0,1 12,22A10,10 0 0,1 2,12A10,10 0 0,1 12,2A10,10 0 0,1 22,12M12,17.23C10.25,17.23 8.71,16.5 7.81,15.42L9.23,14C9.68,14.72 10.75,15.23 12,15.23C13.25,15.23 14.32,14.72 14.77,14L16.19,15.42C15.29,16.5 13.75,17.23 12,17.23Z" /></svg>
